src/main/webapp/data/mac.svg

<svg height="440" viewBox="0 0 2880 1920" width="660" xmlns="http://www.w3.org/2000/svg"><path d="m0 0h2880v1920h-2880z" fill="#00785e"/><g fill-rule="evenodd"><path d="m1440 362-23.6562 72.90625h-76.6876l62.0313 45.0625-23.6875 72.875 62-45 62 45-23.6875-72.875 62.0313-45.0625h-76.6876zm-302.5625 127.90625 15.5313 50.71875-43.4688 30.40625 53.0312.9375 15.5 50.71875 17.2813-50.15625 53.0313.90625-42.3438-31.90625 17.25-50.15625-43.4688 30.4375zm605.125 0-42.3437 31.90625-43.4688-30.4375 17.25 50.15625-42.3438 31.90625 53.0313-.90625 17.2813 50.15625 15.5-50.71875 53.0312-.9375-43.4688-30.40625zm-705.5937 167.5625-22.4063 48.0625-52.625-6.46875 38.7813 36.15625-22.4063 48.09375 46.375-25.71875 38.7813 36.15625-10.0938-52.0625 46.3438-25.71875-52.625-6.4375zm806.0624 0-10.125 52.0625-52.625 6.4375 46.3438 25.71875-10.0938 52.0625 38.7813-36.15625 46.375 25.71875-22.4063-48.09375 38.7813-36.15625-52.625 6.46875z" fill="#fbd116"/><path d="m1440 614.40625c-68.8736 59.51889-112.5 147.49144-112.5 245.59375 0 66.72583 20.174 128.75415 54.75 180.3438-42.4621-54.85207-67.75-123.65813-67.75-198.3438 0-49.6094 11.1628-96.62673 31.0938-138.6875-13.7651-14.54686-24.2214-32.25814-30.125-51.9375-26.7118 47.14513-41.9688 101.60467-41.9688 159.625 0 72.17038 23.6022 138.84574 63.5 192.75-69.4832-72.84023-167.4627-118.25001-276-118.25-5.8322 0-11.6381.14686-17.4062.40625 10.921 10.17899 20.0883 22.20825 27 35.59375 107.9634.16462 205.43 45.28136 274.75 117.5938-66.2028-55.2952-151.4093-88.59381-244.3438-88.5938-51.9365 0-101.45241 10.39612-146.59375 29.21875 46.37985 122.55435 164.85705 209.78125 303.59375 209.78125 8.9834 0 17.8889-.4043 26.6875-1.125-18.721 3.364-38.0033 5.125-57.6875 5.125-87.5323 0-166.9867-34.7204-225.375-91.125-12.15417 4.6765-25.18888 7.5966-38.78125 8.4062 59.47015 67.2664 146.37925 109.7188 243.15625 109.7188 91.9236 0 174.9443-38.2921 234-99.7812 59.0557 61.4891 142.0765 99.7812 234 99.7812 96.7771 0 183.6861-42.4524 243.1562-109.7188-13.5922-.8096-26.6269-3.7297-38.7812-8.4062-58.3882 56.4046-137.8426 91.125-225.375 91.125-19.6841 0-38.9665-1.761-57.6875-5.125 8.7985.7207 17.7042 1.125 26.6875 1.125 138.7368 0 257.2139-87.2269 303.5938-209.78125-45.1415-18.82263-94.6572-29.21875-146.5938-29.21875-92.9344-.00001-178.141 33.2986-244.3438 88.5938 69.32-72.31244 166.7866-117.42918 274.75-117.5938 6.9117-13.3855 16.079-25.41476 27-35.59375-5.7681-.25939-11.5739-.40625-17.4062-.40625-108.5372-.00001-206.5167 45.40977-276 118.25 39.8979-53.90426 63.5-120.57962 63.5-192.75 0-58.02033-15.257-112.47987-41.9688-159.625-5.9036 19.67936-16.3599 37.39064-30.125 51.9375 19.931 42.06077 31.0938 89.0781 31.0938 138.6875 0 74.68567-25.2878 143.49173-67.75 198.3438 34.5761-51.58965 54.75-113.61797 54.75-180.3438 0-98.10231-43.6264-186.07486-112.5-245.59375zm0 541.31255c-58.257 55.62-137.1575 89.7812-224 89.7812h-252.53125c7.44465 10.9404 15.24579 21.616 23.40625 32h244.125c79.6028 0 152.5242-28.7197 209-76.3438 56.4758 47.6241 129.3973 76.3438 209 76.3438h244.125c8.1606-10.384 15.9616-21.0596 23.4062-32h-252.5312c-86.8424 0-165.7429-34.1612-224-89.7812zm-425.125 154.7812c4.9651 5.4271 10.0508 10.7637 15.2188 16h819.8124c5.1679-5.2363 10.2537-10.5729 15.2188-16zm50.5938 49c10.1323 8.6837 20.5576 17.0259 31.2812 25h343.25 343.25c10.7237-7.9741 21.1489-16.3163 31.2812-25h-374.5312zm67.75 50c18.576 11.72 37.8551 22.4252 57.7812 32h249 249c19.9262-9.5748 39.2052-20.28 57.7812-32h-306.7812zm94.3437 48c65.7472 26.1288 137.4178 40.5 212.4375 40.5s146.6902-14.3712 212.4375-40.5h-212.4375z" fill="#fff"/></g></svg>

<svg xmlns:svg="http://www.w3.org/2000/svg" xmlns="http://www.w3.org/2000/svg"
width="660" height="440" viewBox="0 0 2880 1920">
<title>Flag of Macau</title>
<defs id="defs4" />
<rect width="2880" height="1920" x="0" y="0" id="rect3348" style="fill:#00785e;fill-opacity:1;stroke:none;stroke-width:0;stroke-miterlimit:4;stroke-dasharray:none;stroke-opacity:1" />
<path d="M 1440,362 L 1416.3438,434.90625 L 1339.6562,434.90625 L 1401.6875,479.96875 L 1378,552.84375 L 1440,507.84375 L 1502,552.84375 L 1478.3125,479.96875 L 1540.3438,434.90625 L 1463.6562,434.90625 L 1440,362 z M 1137.4375,489.90625 L 1152.9688,540.625 L 1109.5,571.03125 L 1162.5312,571.96875 L 1178.0312,622.6875 L 1195.3125,572.53125 L 1248.3438,573.4375 L 1206,541.53125 L 1223.25,491.375 L 1179.7812,521.8125 L 1137.4375,489.90625 z M 1742.5625,489.90625 L 1700.2188,521.8125 L 1656.75,491.375 L 1674,541.53125 L 1631.6562,573.4375 L 1684.6875,572.53125 L 1701.9688,622.6875 L 1717.4688,571.96875 L 1770.5,571.03125 L 1727.0312,540.625 L 1742.5625,489.90625 z M 1036.9688,657.46875 L 1014.5625,705.53125 L 961.9375,699.0625 L 1000.7188,735.21875 L 978.3125,783.3125 L 1024.6875,757.59375 L 1063.4688,793.75 L 1053.375,741.6875 L 1099.7188,715.96875 L 1047.0938,709.53125 L 1036.9688,657.46875 z M 1843.0312,657.46875 L 1832.9062,709.53125 L 1780.2812,715.96875 L 1826.625,741.6875 L 1816.5312,793.75 L 1855.3125,757.59375 L 1901.6875,783.3125 L 1879.2812,735.21875 L 1918.0625,699.0625 L 1865.4375,705.53125 L 1843.0312,657.46875 z" id="path3370" style="fill:#fbd116;fill-opacity:1;fill-rule:evenodd;stroke:none;stroke-width:0;stroke-linecap:butt;stroke-linejoin:miter;stroke-miterlimit:4;stroke-dasharray:none;stroke-opacity:1" />
<path d="M 1440,614.40625 C 1371.1264,673.92514 1327.5,761.89769 1327.5,860 C 1327.5,926.72583 1347.674,988.75415 1382.25,1040.3438 C 1339.7879,985.49173 1314.5,916.68567 1314.5,842 C 1314.5,792.3906 1325.6628,745.37327 1345.5938,703.3125 C 1331.8287,688.76564 1321.3724,671.05436 1315.4688,651.375 C 1288.757,698.52013 1273.5,752.97967 1273.5,811 C 1273.5,883.17038 1297.1022,949.84574 1337,1003.75 C 1267.5168,930.90977 1169.5373,885.49999 1061,885.5 C 1055.1678,885.5 1049.3619,885.64686 1043.5938,885.90625 C 1054.5148,896.08524 1063.6821,908.1145 1070.5938,921.5 C 1178.5572,921.66462 1276.0238,966.78136 1345.3438,1039.0938 C 1279.141,983.7986 1193.9345,950.49999 1101,950.5 C 1049.0635,950.5 999.54759,960.89612 954.40625,979.71875 C 1000.7861,1102.2731 1119.2633,1189.5 1258,1189.5 C 1266.9834,1189.5 1275.8889,1189.0957 1284.6875,1188.375 C 1265.9665,1191.739 1246.6842,1193.5 1227,1193.5 C 1139.4677,1193.5 1060.0133,1158.7796 1001.625,1102.375 C 989.47083,1107.0515 976.43612,1109.9716 962.84375,1110.7812 C 1022.3139,1178.0476 1109.223,1220.5 1206,1220.5 C 1297.9236,1220.5 1380.9443,1182.2079 1440,1120.7188 C 1499.0557,1182.2079 1582.0765,1220.5 1674,1220.5 C 1770.7771,1220.5 1857.6861,1178.0476 1917.1562,1110.7812 C 1903.564,1109.9716 1890.5293,1107.0515 1878.375,1102.375 C 1819.9868,1158.7796 1740.5324,1193.5 1653,1193.5 C 1633.3159,1193.5 1614.0335,1191.739 1595.3125,1188.375 C 1604.111,1189.0957 1613.0167,1189.5 1622,1189.5 C 1760.7368,1189.5 1879.2139,1102.2731 1925.5938,979.71875 C 1880.4523,960.89612 1830.9366,950.5 1779,950.5 C 1686.0656,950.49999 1600.859,983.7986 1534.6562,1039.0938 C 1603.9762,966.78136 1701.4428,921.66462 1809.4062,921.5 C 1816.3179,908.1145 1825.4852,896.08524 1836.4062,885.90625 C 1830.6381,885.64686 1824.8323,885.5 1819,885.5 C 1710.4628,885.49999 1612.4833,930.90977 1543,1003.75 C 1582.8979,949.84574 1606.5,883.17038 1606.5,811 C 1606.5,752.97967 1591.243,698.52013 1564.5312,651.375 C 1558.6276,671.05436 1548.1713,688.76564 1534.4062,703.3125 C 1554.3372,745.37327 1565.5,792.3906 1565.5,842 C 1565.5,916.68567 1540.2122,985.49173 1497.75,1040.3438 C 1532.3261,988.75415 1552.5,926.72583 1552.5,860 C 1552.5,761.89769 1508.8736,673.92514 1440,614.40625 z M 1440,1155.7188 C 1381.743,1211.3388 1302.8425,1245.5 1216,1245.5 L 963.46875,1245.5 C 970.9134,1256.4404 978.71454,1267.116 986.875,1277.5 L 1231,1277.5 C 1310.6028,1277.5 1383.5242,1248.7803 1440,1201.1562 C 1496.4758,1248.7803 1569.3973,1277.5 1649,1277.5 L 1893.125,1277.5 C 1901.2856,1267.116 1909.0866,1256.4404 1916.5312,1245.5 L 1664,1245.5 C 1577.1576,1245.5 1498.2571,1211.3388 1440,1155.7188 z M 1014.875,1310.5 C 1019.8401,1315.9271 1024.9258,1321.2637 1030.0938,1326.5 L 1849.9062,1326.5 C 1855.0741,1321.2637 1860.1599,1315.9271 1865.125,1310.5 L 1014.875,1310.5 z M 1065.4688,1359.5 C 1075.6011,1368.1837 1086.0264,1376.5259 1096.75,1384.5 L 1440,1384.5 L 1783.25,1384.5 C 1793.9737,1376.5259 1804.3989,1368.1837 1814.5312,1359.5 L 1440,1359.5 L 1065.4688,1359.5 z M 1133.2188,1409.5 C 1151.7948,1421.22 1171.0739,1431.9252 1191,1441.5 L 1440,1441.5 L 1689,1441.5 C 1708.9262,1431.9252 1728.2052,1421.22 1746.7812,1409.5 L 1440,1409.5 L 1133.2188,1409.5 z M 1227.5625,1457.5 C 1293.3097,1483.6288 1364.9803,1498 1440,1498 C 1515.0197,1498 1586.6902,1483.6288 1652.4375,1457.5 L 1440,1457.5 L 1227.5625,1457.5 z" id="path3169" style="fill:#ffffff;fill-opacity:1;fill-rule:evenodd;stroke:none;stroke-width:0;stroke-linecap:butt;stroke-linejoin:miter;stroke-miterlimit:4;stroke-dasharray:none;stroke-opacity:1" />
</svg>
